!!!COM: Lassus, Orlandus
!!!OPR: Novae aliquot et ante hac non ita usitatae cantiones suavissimae
!!!ONM: 7
!!!OTL@@LA: Justi tulerunt spolia
**kern	**text	**kern	**text
*staff2	*staff2	*staff1	*staff1
*I"Bassus	*	*I"Tenor	*
*I'A	*	*I'C	*
*clefF4	*	*clefGv2	*
*k[b-]	*	*k[b-]	*
*F:	*	*F:	*
*M2/1	*	*M2/1	*
*met(C|)	*	*met(C|)	*
=1	=1	=1	=1
0r	.	1.f	Ju-
.	.	4e	.
.	.	4d	.
=2	=2	=2	=2
1.F	Ju-	1c	.
.	.	1d	-sti
4E	.	.	.
4D	.	.	.
=3	=3	=3	=3
1C	.	2r	.
.	.	2e	tu-
1D	-sti	2f	-le-
.	.	2d	-runt
=4	=4	=4	=4
2r	.	2.c	spo-
2A	tu-	.	.
.	.	4c	-li-
2B-	-le-	1d	-a
2G	-runt	.	.
=5	=5	=5	=5
2.F	spo-	2r	.
.	.	1f	im-
4F	-li-	.	.
1G	-a	.	.
.	.	2e	-pi-
=6	=6	=6	=6
2r	.	1d	-o-
1B-	im-	.	.
.	.	1c	-rum,
2A	-pi-	.	.
=7	=7	=7	=7
1G	-o-	2r	.
.	.	1e-X	im-
1F	-rum,	.	.
.	.	2d	-pi-
=8	=8	=8	=8
2r	.	1c	-o-
1E-X	im-	.	.
.	.	1B-	-rum,
2D	-pi-	.	.
=9	=9	=9	=9
1C	-o-	2r	.
.	.	2c	et
1BB-	rum,	4d	can-
.	.	4c	.
.	.	4B-	.
.	.	4A	.
=10	=10	=10	=10
2r	.	2G	.
2D	et	2F	-ta-
4C	can-	2.G	-ve-
4D	.	.	.
4E	.	.	.
4F	.	4A	.
=11	=11	=11	=11
2G	.	2B-	.
2A	-ta-	2c	-runt,
2.G	-va-	2r	.
.	.	1g	Do-
4F	.	.	.
=12	=12	=12	=12
2E	.	.	.
2D	-runt,	2f	-mi-
2r	.	0e	-ne,
1A	Do-	.	.
=13	=13	=13	=13
.	.	.	.
2G	-mi-	.	.
1F	-ne,	2r	.
.	.	1A	no-
=14	=14	=14	=14
1D	no-	.	.
.	.	2B#X	-men
2E	-men	1c	san-
2F.	san-	.	.
=15	=15	=15	=15
.	.	2.d	.
4D	.	.	.
2B-	.	.	.
.	.	4e	.
2.A	-ctum	2f	.
.	.	2e	-ctum
4G	.	.	.
=16	=16	=16	=16
4F	.	4d	tu-
4E	.	4c	.
2F	.	2c.	.
1D	tu-	.	.
.	.	8B-L	.
.	.	8AJ	.
.	.	2B-	.
=17	=17	=17	=17
1C	-um,	0c	-um,
2r	.	.	.
2E	et	.	.
=18	=18	=18	=18
2G	vi-	2r	.
1A	-ctri-	2c	et
.	.	2e	vi-
2D	-cem	1f	-ctri-
=19	=19	=19	=19
2.d	ma-	.	.
.	.	2B-	-cem
4c	.	.	.
4B-	.	2.f	ma-
4A	.	.	.
2B-.	.	.	.
.	.	4e	.
=20	=20	=20	=20
.	.	4d	.
4A	.	4c	.
4G	.	2d	.
4F	.	.	.
2G	.	2B-	-num
2A	-num	1f	tu-
=21	=21	=21	=21
1B-	tu-	.	.
.	.	2d	-am
0A	-am	2r	.
.	.	2f	lau-
=22	=22	=22	=22
.	.	2e	-da-
.	.	1c	-ve-
1F	lau-	.	.
.	.	4B-	.
.	.	4A	.
=23	=23	=23	=23
2E	-da-	2c	.
1G	-ve-	2B-	-runt
.	.	2.d	pa-
4F	.	.	.
4E	.	4c	.
=24	=24	=24	=24
2G	.	4B-	.
.	.	4G	.
2F	-runt	4A	.
.	.	4B-	.
2A	pa-	2c	.
2G	-ri-	2B-	-ri-
=25	=25	=25	=25
1A	-ter,	0A	-ter,
2r	.	.	.
1F	Do-	.	.
=26	=26	=26	=26
.	.	1.c	Do-
2F	-mi-	.	.
1F	-ne	.	.
.	.	2c	-mi-
=27	=27	=27	=27
2r	.	0c	-ne
2A.	De-	.	.
.	.	.	.
4G	.	.	.
4F	.	.	.
4E	.	.	.
=28	=28	=28	=28
1D	.	2r	.
.	.	2f.	De-
1BB-	-us,	.	.
.	.	4e	.
.	.	4d	.
.	.	4c	.
=29	=29	=29	=29
2r	.	1B-	.
2d.	De-	.	.
.	.	1G	-us,
4c	.	.	.
4B-	.	.	.
4A	.	.	.
=30	=30	=30	=30
4G	.	2r	.
4F	.	.	.
4E-X	.	2B-.	De-
4D	.	.	.
2E-	.	.	.
.	.	4c	.
2BB-.	-us	4d	.
.	.	4e	.
=31	=31	=31	=31
.	.	2.f	.
4C	.	.	.
4D	.	.	.
4Eni	.	8eL	.
.	.	8dJ	.
4F	.	2.c	.
4G	.	.	.
4A	.	.	.
4B-	.	4d	.
=32	=32	=32	=32
4c	.	2e	.
4A	.	.	.
2d	.	2f.	-us
2.B-	no-	.	.
.	.	4e	.
.	.	4d	.
4A	.	4c	.
=33	=33	=33	=33
4G	.	4B-	.
4F	.	4c	.
2F.	.	2A	.
.	.	1G	no-
8EL	.	.	.
8DJ	.	.	.
2E	.	.	.
=34	=34	=34	=34
0F	-ster.	0F	-ster.
==	==	==	==
*-	*-	*-	*-
!!!RDF**kern: l = terminal long
!!!RDF**kern: i = editorial accidental
!!!PDT: 1590
!!!PED: Adam Berg
!!!AGN: Motet; Bicinium
!!!YOR: https://mdz-nbn-resolving.de/details:bsb00090897
!!!YOO: München, Bayerische Staatsbibliothek
!!!URL-scan: https://www.digitale-sammlungen.de/view/bsb00090897?page=4 Cantus
!!!URL-scan: https://www.digitale-sammlungen.de/view/bsb00090897?page=44 Altus
!!!IIIF: https://api.digitale-sammlungen.de/iiif/presentation/v2/bsb00090897/manifest
!!!EED: Mirko Sattig
!!!END: 2023/11/24
!!!ENC: Mirko Sattig
!!!EEV: 2023/12/01
!!!title: @{ONM}. @{OTL}
!!!system-decoration: [(s1,s2)]